!!!!SEGMENT: pl-kk--kk-i-68--009_anonim--missa-deo-gratias.krn
!!!cenid: 17xx:2281
!!!COM: Anonim
!!!COM-rism: pe30004985
!!!CDT:
!!!CNT:
!!!OTL: Missa – Deo gratias
!!!PDT:
!!!AGN: Sacred; Mass
!!!SMS-siglum: PL-Kk
!!!SMS-shelfmark: Kk.I.68
!!!NIFC-rismID: 1001154624
!!!URL-scan: http://repozytorium.nifc.pl/skany/pl-kk-nut--i-68
!!!ONB-nifc: UWAGA: części Mszy: 1. Protexisti me, 2. Kyrie, 3. Alleluia, 4. Posuisti Domine, 5. Sanctus, 6. Benedictus, 7. Agnus Dei, 8. Dona nobis, 9. Deo gratias
!!!SMS-variant: Baſso PL-Kk Kk.I.68:0013
!!!SMS-altvar: Baſso PL-Kk Kk.I.68:0018
**kern	**text	**kern	**text	**kern	**text
*part3	*part3	*part2	*part2	*part1	*part1
*staff3	*staff3	*staff2	*staff2	*staff1	*staff1
*I"Baſso	*	*I"Tenore Secundo	*	*I"Tenore Primo	*
*I'B	*	*I'T 2	*	*I'T 1	*
*clefF4	*	*clefC4	*	*clefC4	*
*k[]	*	*k[]	*	*k[]	*
*M2/2	*	*M2/2	*	*M2/2	*
*met(c|)	*	*met(c|)	*	*met(c|)	*
*2\right	*	*2\right	*	*2\right	*
=1	=1	=1	=1	=1	=1
4C/	De-	1G	De-	1c	De-
4D/	.	.	.	.	.
4E/	.	.	.	.	.
4C/	.	.	.	.	.
=2	=2	=2	=2	=2	=2
2G\	.	2G/	.	2c\	.
2GG/	-o	2G/	-o	2B\	-o
=3	=3	=3	=3	=3	=3
2C/	gra-	1c	gra-	1e	gra-
2E\	.	.	.	.	.
=4	=4	=4	=4	=4	=4
1G	.	2c\	.	2e\	.
.	.	2B\	.	2d\	.
=5	=5	=5	=5	=5	=5
2G\	.	2d\	.	2f\	.
2c\	.	2c\	.	2e\	.
=6	=6	=6	=6	=6	=6
2G\	.	2B\ 2g	.	2d\	.
2E\	.	2c\	.	2c\	.
=7	=7	=7	=7	=7	=7
1G	.	2d\	.	2B\	.
.	.	2e\	.	2c\	.
=8	=8	=8	=8	=8	=8
!LO:LB:g=original	!	!	!	!	!
2G\	.	2B\	.	2d\	.
2c\	.	2c\	.	2e\	.
=9	=9	=9	=9	=9	=9
!	!	!LO:LB:g=original	!	!LO:LB:g=original	!
1G	.	1B	.	1d	.
=10	=10	=10	=10	=10	=10
2.G\	.	2.B\	.	2.d\	.
4G\	-ti-	4B\	-ti-	4d\	-ti-
=11	=11	=11	=11	=11	=11
1C	-as.	1G	-as	1c	-as
==	==	==	==	==	==
*-	*-	*-	*-	*-	*-
!!!system-decoration: [(s1,s2,s3)]
!!!ENC: Kamil Watkowski
!!!END: 2021-08-06
